X: 33
T:Lanagan's Ball
M:6/8
L:1/8
Q:120
R:Jig
K:Em
"Em"EFE G2A|B2A B^cd|"D"DED F2G|AdB AFD|
"Em"EFE G2A|B2A B^cd|edB "Am"=cBA|"Em"BGE E3:|
|:"Em"e2f gfe|"D"fag fed|"C"e2f gfe|"B"f^dB B3|
"Em"e2f gfe|"D"fag fed|"Em"edB "Am"=cBA|"Em"BGE E3:|
